X:41
T:Curlew, The
M:C|
R:Reel
C:Josephine Keegan
K:A
fBBA Bcde|fece ~agae|f/2g/2a ed cAA2|GAce agba|\
f~B3 Bcde|fece ~agaf|~=g3e ~f3e|dBBA FB~B2::\
B/2c/2d cd B~F3|D~F3 Bcdf|ecBc A~E3|CEAB cedc|\
B/2c/2d cd BF F/2F/2F|DF F/2F/2F Bcdf|ecBA fcec|dcBA F~B3||
